packages/ffe-icons/icons/filled/md/female.svg

<svg xmlns="http://www.w3.org/2000/svg" height="24" viewBox="0 -960 960 960" width="24"><path d="M450.001-210.001H400q-12.75 0-21.374-8.628-8.625-8.629-8.625-21.384 0-12.756 8.625-21.371 8.624-8.615 21.374-8.615h50.001v-102.463q-77.846-11.308-128.923-70.5t-51.077-138.269q0-87.146 61.423-147.957Q392.846-789.999 480-789.999t148.576 60.811q61.423 60.811 61.423 147.957 0 79.077-51.077 138.269-51.077 59.192-128.923 70.5v102.463H560q12.75 0 21.375 8.628 8.624 8.629 8.624 21.384 0 12.756-8.624 21.371-8.625 8.615-21.375 8.615h-50.001V-160q0 12.75-8.628 21.374-8.629 8.625-21.384 8.625-12.756 0-21.371-8.625-8.615-8.624-8.615-21.374v-50.001Zm30.061-219.998q62.169 0 106.054-43.947 43.885-43.947 43.885-106.116t-43.947-106.054q-43.947-43.885-106.116-43.885t-106.054 43.947q-43.885 43.947-43.885 106.116t43.947 106.054q43.947 43.885 106.116 43.885Z"/></svg>

<svg xmlns="http://www.w3.org/2000/svg" height="24" viewBox="0 -960 960 960" width="24"><path d="M450-210h-50q-12.75 0-21.37-8.63-8.63-8.63-8.63-21.38 0-12.76 8.63-21.37Q387.25-270 400-270h50v-102.46q-77.85-11.31-128.92-70.5Q270-502.15 270-581.23q0-87.15 61.42-147.96Q392.85-790 480-790t148.58 60.81Q690-668.38 690-581.23q0 79.08-51.08 138.27-51.07 59.19-128.92 70.5V-270h50q12.75 0 21.37 8.63 8.63 8.63 8.63 21.38 0 12.76-8.63 21.37Q572.75-210 560-210h-50v50q0 12.75-8.63 21.37-8.63 8.63-21.38 8.63-12.76 0-21.37-8.63Q450-147.25 450-160v-50Zm30.06-220q62.17 0 106.06-43.95Q630-517.89 630-580.06t-43.95-106.06Q542.11-730 479.94-730t-106.06 43.95Q330-642.11 330-579.94t43.95 106.06Q417.89-430 480.06-430Z"/></svg>
